X: 6
T: No_15_Social_Dance_Song_(c).krn
N: Derived from No_15_Social_Dance_Song_(c).krn
%%abc-version 2.0
%%abcx-abcm2ps-target-version 5.9.1 (29 Sep 2008)
%%abc-creator hum2abc beta
%%abcx-conversion-date 2019/03/15 08:35:00
%%humdrum-veritas 1904186703
%%humdrum-veritas-data 4080664168
%%linebreak <none>
%%barnumbers 0
L: 1/16
M: 2/4
K: F# clef=bass
[K:clef=bass][M:2/4]C/C3/A,A, C3/D/D z [I:setbarnb 2]| 
A,/A,3/G,G, F, z G,2 | 
A,/A,3/G,G, F, z G,2 | 
C/C3/A,A, C3/D/D z | 
A,/A,3/G,G, F, z G,2 | 
A,/A,3/G,G, F, z G,2 | 
C/C3/CC C z C2 | 
F/F3/(FD) F2 F/D3/ | 
C3C C3/D/C2 | 
A,/A,3/G,G, F, z G,2 | 
A,/C3/G,G, F, z G,2 [I:setbarnb 12]:|]  
A,/C3/G,G, F,2 z2 |]  



